assets/img/runroom-logo.svg

<svg width="95" height="18" viewBox="0 0 95 18" fill="none" xmlns="http://www.w3.org/2000/svg">
<g clip-path="url(#clip0)">
<path d="M12.0578 13.2995L12.3595 17.6979H10.2822L9.98045 13.4272C9.87601 11.7096 8.62265 10.4911 6.9515 10.4911H2.14696V17.6979H0V0H6.70779C10.201 0 12.3479 2.10054 12.3479 5.18752C12.3479 7.13719 11.2338 8.52981 9.56267 9.30735C10.9553 10.0617 11.9301 11.5123 12.0578 13.2995ZM2.14696 8.55302H6.69619C9.1797 8.55302 10.1081 6.9399 10.1081 5.18752C10.1081 3.43513 9.16809 1.92646 6.69619 1.92646H2.14696V8.55302Z" fill="black"/>
<path d="M25.0898 17.7092H23.0705V15.2605C22.409 17.0361 20.8191 17.9181 18.8695 17.9181C15.9914 17.9181 14.1113 15.8639 14.1113 12.7538V4.95508H16.1306V12.4172C16.1306 14.5874 17.3956 16.0612 19.3221 16.0612C21.4922 16.0612 23.0705 14.3205 23.0705 11.837V4.95508H25.0898V17.7092Z" fill="black"/>
<path d="M27.4463 4.95523H29.4656V7.40392C30.1271 5.62833 31.717 4.74634 33.6667 4.74634C36.5448 4.74634 38.4248 6.80045 38.4248 9.91064V17.6977H36.4055V10.2472C36.4055 8.07702 35.1405 6.60317 33.2141 6.60317C31.0439 6.60317 29.4656 8.34394 29.4656 10.8275V17.7093H27.4463V4.95523Z" fill="black"/>
<path d="M46.0026 6.75388C43.4262 6.75388 42.6951 9.07492 42.6951 12.0923V17.7092H40.6758V4.95508H42.6951V7.53143C43.2289 5.79065 44.285 4.95508 46.165 4.95508H47.546V6.75388H46.0026Z" fill="black"/>
<path d="M47.5347 11.3265C47.5347 7.48516 50.2387 4.74634 54.0104 4.74634C57.8053 4.74634 60.5093 7.47355 60.5093 11.3265C60.5093 15.1446 57.8053 17.9066 54.0104 17.9066C50.2503 17.9066 47.5347 15.1446 47.5347 11.3265ZM58.4435 11.3265C58.4435 8.54123 56.6447 6.56835 54.022 6.56835C51.4224 6.56835 49.6236 8.54123 49.6236 11.3265C49.6236 14.1117 51.4224 16.0846 54.022 16.0846C56.6447 16.0846 58.4435 14.1117 58.4435 11.3265Z" fill="black"/>
<path d="M61.751 11.3265C61.751 7.48516 64.455 4.74634 68.2267 4.74634C72.0216 4.74634 74.7256 7.47355 74.7256 11.3265C74.7256 15.1446 72.0216 17.9066 68.2267 17.9066C64.455 17.9066 61.751 15.1446 61.751 11.3265ZM72.6482 11.3265C72.6482 8.54123 70.8494 6.56835 68.2267 6.56835C65.6271 6.56835 63.8283 8.54123 63.8283 11.3265C63.8283 14.1117 65.6271 16.0846 68.2267 16.0846C70.861 16.0846 72.6482 14.1117 72.6482 11.3265Z" fill="black"/>
<path d="M76.3735 4.95523H78.3928V7.40392C78.8687 5.86043 80.2845 4.74634 82.2342 4.74634C84.3347 4.74634 85.9826 5.70957 86.4352 7.45034C86.9226 5.94167 88.617 4.75794 90.5667 4.75794C93.3287 4.75794 94.9882 6.60317 94.9882 9.69014V17.7093H92.9689V10.2124C92.9689 8.04221 91.8781 6.54514 90.0909 6.54514C87.9671 6.54514 86.7021 8.04221 86.7021 10.2124V17.6977H84.6828V10.2124C84.6828 8.04221 83.592 6.54514 81.828 6.54514C79.681 6.54514 78.4161 8.04221 78.4161 10.2124V17.6977H76.3967V4.95523H76.3735Z" fill="black"/>
</g>
<defs>
<clipPath id="clip0">
<rect width="95" height="17.9068" fill="white"/>
</clipPath>
</defs>
</svg>

<svg width="95" height="18" viewBox="0 0 95 18" fill="none" xmlns="http://www.w3.org/2000/svg"><g clip-path="url(#clip0)" fill="#000"><path d="M12.058 13.3l.302 4.398h-2.078l-.302-4.27c-.104-1.718-1.357-2.937-3.029-2.937H2.147v7.207H0V0h6.708c3.493 0 5.64 2.1 5.64 5.188 0 1.95-1.114 3.342-2.785 4.12 1.392.754 2.367 2.204 2.495 3.992zM2.147 8.553h4.55c2.483 0 3.411-1.613 3.411-3.365 0-1.753-.94-3.262-3.412-3.262H2.147v6.627zM25.09 17.71h-2.02v-2.45c-.661 1.776-2.25 2.658-4.2 2.658-2.879 0-4.759-2.054-4.759-5.164V4.955h2.02v7.462c0 2.17 1.265 3.644 3.191 3.644 2.17 0 3.748-1.74 3.748-4.224V4.955h2.02V17.71zm2.356-12.755h2.02v2.449c.661-1.776 2.251-2.658 4.2-2.658 2.879 0 4.759 2.054 4.759 5.165v7.787h-2.02v-7.45c0-2.171-1.264-3.645-3.19-3.645-2.171 0-3.75 1.74-3.75 4.225v6.881h-2.019V4.955zm18.557 1.799c-2.577 0-3.308 2.32-3.308 5.338v5.617h-2.02V4.955h2.02v2.576c.534-1.74 1.59-2.576 3.47-2.576h1.381v1.799h-1.543zm1.532 4.572c0-3.84 2.704-6.58 6.475-6.58 3.795 0 6.5 2.728 6.5 6.58 0 3.819-2.705 6.58-6.5 6.58-3.76 0-6.475-2.761-6.475-6.58zm10.909 0c0-2.785-1.8-4.758-4.422-4.758-2.6 0-4.398 1.973-4.398 4.758 0 2.786 1.798 4.759 4.398 4.759 2.623 0 4.422-1.973 4.422-4.759zm3.307 0c0-3.84 2.704-6.58 6.476-6.58 3.795 0 6.499 2.728 6.499 6.58 0 3.819-2.704 6.58-6.5 6.58-3.771 0-6.475-2.761-6.475-6.58zm10.897 0c0-2.785-1.799-4.758-4.421-4.758-2.6 0-4.399 1.973-4.399 4.758 0 2.786 1.8 4.759 4.399 4.759 2.634 0 4.421-1.973 4.421-4.759zm3.726-6.371h2.019v2.449c.476-1.544 1.891-2.658 3.841-2.658 2.1 0 3.749.964 4.201 2.704.488-1.508 2.182-2.692 4.132-2.692 2.762 0 4.421 1.845 4.421 4.932v8.02h-2.02v-7.498c0-2.17-1.09-3.667-2.877-3.667-2.124 0-3.389 1.497-3.389 3.667v7.486h-2.02v-7.486c0-2.17-1.09-3.667-2.854-3.667-2.147 0-3.412 1.497-3.412 3.667v7.486h-2.02V4.955h-.022z"></path></g><defs><clipPath id="clip0"><path fill="#fff" d="M0 0h95v17.907H0z"></path></clipPath></defs></svg>
